X: 167
T: Kan meimei
%%abc-version 2.0
%%abcx-abcm2ps-target-version 5.9.1 (29 Sep 2008)
%%abc-creator hum2abc beta
%%abcx-conversion-date 2013/10/02 07:52:29
%%abc-edited-by Helmut Schaffrath
%%humdrum-veritas 2534911986
%%humdrum-veritas-data 4161762104
%%continueall 1
%%barnumbers 0
L: 1/16
M: 2/4
K: A
A2 B c G2 F2 [I:setbarnb 1]| 
e2 f ae4 | 
c2 B c A2 F A | 
B8 | 
e2 f a e2 d c | 
B2 c2e4 | 
A2 G F E2 B,2 | 
E8 |]  



